src/assets/images/noun-tennis-3463909.svg

<svg xmlns="http://www.w3.org/2000/svg" viewBox="0 0 630.4 630.1" style="enable-background:new 0 0 630.4 630.1" xml:space="preserve"><path d="M441.5 441.3 382 419.9c-11 8.3-22.8 15.5-35.3 21.3 48.3 22.2 93.9 50.1 135.7 83.1.7-1.3 1.6-2.5 2.7-3.6l35.8-35.9c1.1-1 2.3-1.9 3.7-2.6-32.9-41.8-60.8-87.4-83.1-135.7-6 12.5-13.3 24.3-21.7 35.2l21.7 59.6z"/><path d="M396.8 396.5c83-83 74.4-226.7-19.2-320.3C330.8 28.4 266.9 1 199.9 0 146.7-.8 95.4 19.8 57.3 57.1 16.8 98.4-3.9 155.3.6 213 4.9 275.3 32 333.7 76.5 377.4c93.6 93.5 237.3 102.1 320.3 19.1zm-238.2 1.1c-21-10.4-40.2-24-57.1-40.3l44.2-44.2 48.3 48.3-34.9 34.9c-.3.4-.5.8-.5 1.3zm89.6-89.8-48.3 47.7-48.3-47.7 48.3-48.3 48.3 48.3zm-96.6-108.2 48.3-48.3 48.3 48.3-48.3 48.4-48.3-48.4zm53.9 53.9 48.3-48.3 48.3 48.3-48.3 48.3-48.3-48.3zm102.3 5.7 48.4 48.6-48.4 47.7-48.3-47.7 48.3-48.6zm5.6-5.7 48.3-48.3 48.3 48.3-48.3 48.3-48.3-48.3zm-5.6-5.5-48.3-48.4 48.3-48.3 48.4 48.3-48.4 48.4zm-54-54-48.3-48.3 48.3-48.3 48.3 48.3-48.3 48.3zm-53.9-53.9-41.1-41.2L207 50.6l41.1 41.2-48.2 48.3zm-5.6 5.6L146 194l-41.2-41.2 48.3-48.3 41.2 41.2zm-54 53.9L92 248l-41.2-41.2 48.3-48.3 41.2 41.1zm5.7 5.6 48.3 48.3-48.3 48.3-48.4-48.3 48.4-48.3zm101.1 211.3c-.7.8-1.1 1.8-1.1 2.9-27.6-.7-54.9-6.9-80.1-18.3l34-34 48.3 48.3-1.1 1.1zm-41.6-55.1 48.3-48.3 48.3 48.3-48.3 48.3-48.3-48.3zm55.7 57.6c-.1-1-.5-1.9-1.1-2.6l-1-1 48.3-48.3 29.5 29.5c-23 13.2-48.8 21-75.3 22.6l-.4-.2zm109.4-48.2c-8.2 8.2-17.2 15.4-26.9 21.7-.1-.3-.3-.5-.5-.7L313 361.4l48.3-48.3 30.2 30.2.7.5c-6.1 9.7-13.2 18.7-21.2 26.9l-.4.1zm25.8-33.8-29.1-29.2 48.4-48.3 1 1c.7.7 1.6 1.1 2.6 1.1-1.6 26.5-9.3 52.3-22.4 75.4h-.5zm23.4-91.4c-1 0-2.1.4-2.8 1.2l-1.1 1.2-48.6-48.4 34-34c11.5 25.1 17.8 52.3 18.5 80zM398 158.1c-.4.2-.8.4-1.1.8L361.7 194l-48.3-48.3 44.2-44.2c16.3 16.7 29.8 35.8 40.2 56.7l.2-.1zM295 55.8c20.9 10.3 40.1 23.7 56.9 39.8l-44.2 44.2-48.3-48.3 34.8-34.8.8-.9zm-74.9-18.5c.7-.7 1-1.5 1.1-2.5 23 2 45.4 7.9 66.4 17.3l-33.8 33.8-40.9-40.7 7.2-7.9zm-8-3.1-4.9 4.9-5-5c2.7.2 6.4.2 9.6.4l.3-.3zm-19.3 0c.1 1 .4 1.9 1.1 2.6l8 8L153.1 93l-36.2-36.2c23.2-13.1 49.1-20.6 75.7-22.1l.2-.5zM83.1 82.9c8.2-8.1 17.2-15.4 26.9-21.7 0 0 0 .6.5.7l36.9 36.9-48.3 48.4-37.4-37.4c6.2-9.7 13.4-18.7 21.4-26.9zm-25.8 33.9 36.2 36-48.3 48.3-8-8c-.7-.7-1.6-1.1-2.6-1.1 1.8-26.4 9.5-52.2 22.7-75.2zM34.6 202l5 5-4.9 4.9c-.1-3.5-.2-6.8-.1-10.1v.2zm.7 19.2c.9-.1 1.8-.5 2.5-1.1l7.4-7.4 41.2 41.1-33.8 33.8c-9.4-21.1-15.3-43.7-17.3-66.7v.3zm22 73L92 259.4l48.3 48.4L96.2 352c-16.1-16.8-29.6-36-39.8-56.9l.9-.9zM488.1 532.6c0 2.3 1 4.6 2.6 6.2l88.8 88.8c3.5 3.4 9 3.4 12.4 0l35.9-35.8c3.4-3.5 3.4-9 0-12.5l-88.7-88.5c-1.6-1.7-3.9-2.6-6.2-2.6-2.3 0-4.6.9-6.2 2.6l-35.8 35.8c-1.7 1.6-2.6 3.7-2.8 6z"/></svg>

<?xml version="1.0" encoding="utf-8"?>
<!-- Generator: Adobe Illustrator 26.3.1, SVG Export Plug-In . SVG Version: 6.00 Build 0)  -->
<svg version="1.1" id="Calque_1" xmlns="http://www.w3.org/2000/svg" xmlns:xlink="http://www.w3.org/1999/xlink" x="0px" y="0px"
	 viewBox="0 0 630.4 630.1" style="enable-background:new 0 0 630.4 630.1;" xml:space="preserve">
<path d="M441.5,441.3L382,419.9h0c-11,8.3-22.8,15.5-35.3,21.3c48.3,22.2,93.9,50.1,135.7,83.1c0.7-1.3,1.6-2.5,2.7-3.6l35.8-35.9
	c1.1-1,2.3-1.9,3.7-2.6c-32.9-41.8-60.8-87.4-83.1-135.7c-6,12.5-13.3,24.3-21.7,35.2L441.5,441.3z"/>
<path d="M396.8,396.5c83-83,74.4-226.7-19.2-320.3C330.8,28.4,266.9,1,199.9,0C146.7-0.8,95.4,19.8,57.3,57.1
	C16.8,98.4-3.9,155.3,0.6,213C4.9,275.3,32,333.7,76.5,377.4C170.1,470.9,313.8,479.5,396.8,396.5L396.8,396.5z M158.6,397.6
	c-21-10.4-40.2-24-57.1-40.3l44.2-44.2l48.3,48.3l-34.9,34.9v0C158.8,396.7,158.6,397.1,158.6,397.6L158.6,397.6z M248.2,307.8
	l-48.3,47.7l-48.3-47.7l48.3-48.3L248.2,307.8z M151.6,199.6l48.3-48.3l48.3,48.3L199.9,248L151.6,199.6z M205.5,253.5l48.3-48.3
	l48.3,48.3l-48.3,48.3L205.5,253.5z M307.8,259.2l48.4,48.6l-48.4,47.7l-48.3-47.7L307.8,259.2z M313.4,253.5l48.3-48.3l48.3,48.3
	l-48.3,48.3L313.4,253.5z M307.8,248l-48.3-48.4l48.3-48.3l48.4,48.3L307.8,248z M253.8,194l-48.3-48.3l48.3-48.3l48.3,48.3
	L253.8,194z M199.9,140.1l-41.1-41.2L207,50.6l41.1,41.2L199.9,140.1z M194.3,145.7L146,194l-41.2-41.2l48.3-48.3L194.3,145.7z
	 M140.3,199.6L92,248l-41.2-41.2l48.3-48.3L140.3,199.6z M146,205.2l48.3,48.3L146,301.8l-48.4-48.3L146,205.2z M247.1,416.5
	L247.1,416.5c-0.7,0.8-1.1,1.8-1.1,2.9c-27.6-0.7-54.9-6.9-80.1-18.3l34-34l48.3,48.3L247.1,416.5z M205.5,361.4l48.3-48.3
	l48.3,48.3l-48.3,48.3L205.5,361.4z M261.2,419L261.2,419c-0.1-1-0.5-1.9-1.1-2.6l-1-1l48.3-48.3l29.5,29.5v0
	c-23,13.2-48.8,21-75.3,22.6L261.2,419z M370.6,370.8L370.6,370.8c-8.2,8.2-17.2,15.4-26.9,21.7c-0.1-0.3-0.3-0.5-0.5-0.7L313,361.4
	l48.3-48.3l30.2,30.2l0.7,0.5c-6.1,9.7-13.2,18.7-21.2,26.9L370.6,370.8z M396.4,337l-29.1-29.2l48.4-48.3l1,1v0
	c0.7,0.7,1.6,1.1,2.6,1.1c-1.6,26.5-9.3,52.3-22.4,75.4L396.4,337z M419.8,245.6c-1,0-2.1,0.4-2.8,1.2l-1.1,1.2l-48.6-48.4l34-34h0
	C412.8,190.7,419.1,217.9,419.8,245.6L419.8,245.6z M398,158.1c-0.4,0.2-0.8,0.4-1.1,0.8L361.7,194l-48.3-48.3l44.2-44.2v0
	c16.3,16.7,29.8,35.8,40.2,56.7L398,158.1z M295,55.8c20.9,10.3,40.1,23.7,56.9,39.8l-44.2,44.2l-48.3-48.3l34.8-34.8L295,55.8z
	 M220.1,37.3c0.7-0.7,1-1.5,1.1-2.5c23,2,45.4,7.9,66.4,17.3l-33.8,33.8l-40.9-40.7L220.1,37.3z M212.1,34.2l-4.9,4.9l-5-5
	c2.7,0.2,6.4,0.2,9.6,0.4L212.1,34.2z M192.8,34.2L192.8,34.2c0.1,1,0.4,1.9,1.1,2.6l8,8L153.1,93l-36.2-36.2
	c23.2-13.1,49.1-20.6,75.7-22.1L192.8,34.2z M83.1,82.9c8.2-8.1,17.2-15.4,26.9-21.7c0,0,0,0.6,0.5,0.7l36.9,36.9l-48.3,48.4
	l-37.4-37.4C67.9,100.1,75.1,91.1,83.1,82.9L83.1,82.9z M57.3,116.8l36.2,36l-48.3,48.3l-8-8h0c-0.7-0.7-1.6-1.1-2.6-1.1
	C36.4,165.6,44.1,139.8,57.3,116.8L57.3,116.8z M34.6,202l5,5l-4.9,4.9c-0.1-3.5-0.2-6.8-0.1-10.1L34.6,202z M35.3,221.2L35.3,221.2
	c0.9-0.1,1.8-0.5,2.5-1.1l7.4-7.4l41.2,41.1l-33.8,33.8v0c-9.4-21.1-15.3-43.7-17.3-66.7L35.3,221.2z M57.3,294.2L92,259.4
	l48.3,48.4L96.2,352c-16.1-16.8-29.6-36-39.8-56.9L57.3,294.2z"/>
<path d="M488.1,532.6c0,2.3,1,4.6,2.6,6.2l88.8,88.8c3.5,3.4,9,3.4,12.4,0l35.9-35.8h0c3.4-3.5,3.4-9,0-12.5l-88.7-88.5
	c-1.6-1.7-3.9-2.6-6.2-2.6c-2.3,0-4.6,0.9-6.2,2.6l-35.8,35.8C489.2,528.2,488.3,530.3,488.1,532.6L488.1,532.6z"/>
</svg>
